flaticon/household/chest-of-drawers-6.svg

<svg xmlns="http://www.w3.org/2000/svg" width="32" height="32" viewBox="0 0 24 24">
    <path d="M10.800781 19L13.199219 19C13.421875 19 13.601562 18.820312 13.601562 18.601562 13.601562 18.378906 13.421875 18.199219 13.199219 18.199219L10.800781 18.199219C10.578125 18.199219 10.398438 18.378906 10.398438 18.601562 10.398438 18.820312 10.578125 19 10.800781 19zM10.800781 12.601562L13.199219 12.601562C13.421875 12.601562 13.601562 12.421875 13.601562 12.199219 13.601562 11.980469 13.421875 11.800781 13.199219 11.800781L10.800781 11.800781C10.578125 11.800781 10.398438 11.980469 10.398438 12.199219 10.398438 12.421875 10.578125 12.601562 10.800781 12.601562zM10.800781 12.601562"/>
    <path d="M 20.800781 2.199219 L 20.800781 1.835938 C 20.933594 1.660156 21.644531 1.398438 22 1.398438 L 22.398438 1.398438 C 22.621094 1.398438 22.800781 1.222656 22.800781 1 C 22.800781 0.777344 22.621094 0.601562 22.398438 0.601562 L 16 0.601562 C 15.777344 0.601562 15.601562 0.777344 15.601562 1 C 15.601562 1.222656 15.777344 1.398438 16 1.398438 L 16.398438 1.398438 C 16.753906 1.398438 17.46875 1.660156 17.601562 1.835938 L 17.601562 2.199219 L 0 2.199219 L 0 22.199219 L 1.199219 22.199219 L 1.199219 23.398438 L 3.601562 23.398438 L 3.601562 22.199219 L 20.398438 22.199219 L 20.398438 23.398438 L 22.800781 23.398438 L 22.800781 22.199219 L 24 22.199219 L 24 2.199219 Z M 18.269531 1.398438 L 20.132812 1.398438 C 20.050781 1.519531 20 1.652344 20 1.800781 L 20 2.199219 L 18.398438 2.199219 L 18.398438 1.800781 C 18.398438 1.652344 18.351562 1.519531 18.269531 1.398438 Z M 2.800781 22.601562 L 2 22.601562 L 2 22.199219 L 2.800781 22.199219 Z M 22 22.601562 L 21.199219 22.601562 L 21.199219 22.199219 L 22 22.199219 Z M 23.199219 21.398438 L 0.800781 21.398438 L 0.800781 15.800781 L 23.199219 15.800781 Z M 23.199219 15 L 0.800781 15 L 0.800781 9.398438 L 23.199219 9.398438 Z M 0.800781 8.601562 L 0.800781 3 L 23.199219 3 L 23.199219 8.601562 Z M 0.800781 8.601562"/>
    <path d="M 13.199219 5.398438 L 10.800781 5.398438 C 10.578125 5.398438 10.398438 5.578125 10.398438 5.800781 C 10.398438 6.019531 10.578125 6.199219 10.800781 6.199219 L 13.199219 6.199219 C 13.421875 6.199219 13.601562 6.019531 13.601562 5.800781 C 13.601562 5.578125 13.421875 5.398438 13.199219 5.398438 Z M 13.199219 5.398438"/>
</svg>

<svg xmlns="http://www.w3.org/2000/svg" width="32" height="32" viewBox="0 0 24 24">
    <path d="M10.8 19h2.4a.401.401 0 1 0 0-.8h-2.4a.401.401 0 0 0 0 .8zm0 0M10.8 12.602h2.4a.401.401 0 0 0 0-.8l-2.4-.001a.401.401 0 1 0 0 .8zm0 0"/>
    <path d="M20.8 2.2v-.364c.134-.176.845-.438 1.2-.438h.398a.398.398 0 1 0 0-.796H16a.395.395 0 0 0-.398.398c0 .223.175.398.398.398h.398c.356 0 1.07.262 1.204.438v.363H0v20h1.2v1.2h2.402v-1.2h16.796v1.2h2.403v-1.2H24v-20zm-2.53-.802h1.863a.708.708 0 0 0-.133.403v.398h-1.602v-.398a.704.704 0 0 0-.128-.403zM2.8 22.602H2v-.403h.8zm19.2 0h-.8v-.403h.8zm1.2-1.204H.8v-5.597h22.4zm0-6.398H.8V9.398h22.4zM.8 8.602V3h22.4v5.602zm0 0"/>
    <path d="M13.2 5.398h-2.4a.401.401 0 0 0 0 .8l2.4.001a.401.401 0 1 0 0-.8zm0 0"/>
</svg>
